dist/assets/svg/form/name.svg

<svg xmlns="http://www.w3.org/2000/svg" width="13" height="15" fill="none" viewBox="0 0 13 15"><path fill="#030303" d="M7.9017 9.45749C7.9017 9.43118 7.91838 9.40973 7.91838 9.38536V7.71004C7.91142 7.66336 7.90132 7.61714 7.88815 7.57165C8.54145 7.19251 9.07974 6.66291 9.45149 6.03359C9.82325 5.40426 10.016 4.69625 10.0114 3.97732C10.0114 1.78058 8.4385 0 6.49976 0C4.56101 0 2.98813 1.77961 2.98813 3.97732C3.00484 4.69886 3.21494 5.40495 3.59918 6.03088C3.98343 6.6568 4.52954 7.18253 5.18746 7.55993C5.1719 7.60906 5.1604 7.65926 5.15306 7.71004V9.3834C5.1558 9.39688 5.15928 9.41023 5.16348 9.42338C2.19283 9.76643 -0.000244141 11.2751 -0.000244141 12.7672C-0.000244141 14.464 2.90891 15 6.49976 15C10.0906 15 12.9998 14.464 12.9998 12.7672C12.9987 11.3131 10.7952 9.84635 7.9017 9.45749Z"/></svg>

<svg xmlns="http://www.w3.org/2000/svg" width="13" height="15" fill="none" viewBox="0 0 13 15"><path fill="#030303" d="M7.902 9.457c0-.026.016-.047.016-.072V7.71a1 1 0 0 0-.03-.138 4.34 4.34 0 0 0 1.563-1.538c.372-.63.565-1.338.56-2.057C10.011 1.781 8.44 0 6.5 0S2.988 1.78 2.988 3.977c.017.722.227 1.428.611 2.054s.93 1.152 1.588 1.529a1 1 0 0 0-.034.15v1.673l.01.04C2.193 9.766 0 11.275 0 12.767 0 14.464 2.909 15 6.5 15c3.59 0 6.5-.536 6.5-2.233-.001-1.454-2.205-2.92-5.098-3.31"/></svg>
